X:1
T:Among The New Mown Hay
B:Songs Of The West, S Baring Gould
S:Melody Taken down from James Dingle, Coryton 
F:http://www.folkinfo.org/songs
M:4/4
L:1/8
K:C
G2|C2C2D2E2|F2E2D2C2|
w:As I walked out one morn be-time, To 
E2F2G2G2|c4G2E2|G2G2G2c2|
w:view the fields in May, Sir, There I es-pied a 
c2B2A2G2|c2c2C2C2|F4A2A2|
w: fair sweet maid, A-mong the new-mown hay, Sir. A-
G3F D2E2|C6|]
w:mong the new-mown hay.